X:1
T:Title
%%score { ( 1 3 4 ) | ( 2 5 ) }
L:1/8
M:4/4
K:G
V:1 treble nm="Grand Piano"
V:3 treble 
V:4 treble 
V:2 bass 
V:5 bass 
V:1
 z4 z2[Q:1/4=100] D>D | [B,D]3 [B,G] [DB]>[B,G] [Ec]>[DB] | [EB]>[EA] [E^G]>[EA] E2 A>=G | %3
 z2 D>D D>[Fe] [Fd]>[Fc] | [GB]6 z2 | [B,D]3 [B,G] [DB]>[B,G] [Ec]>[DB] | %6
 [EB]>[EA] [E^G]>[EA] E2 A>A | A6[K:bass][K:treble] z2 |[M:3/4] [Fd]6 |[M:1/4] D>D |[M:4/4] d6 z2 | %11
 G2 B4 D>D | d6 z2 | B6 E>E | e6 z2 | [CEA]2 [Ec]4 [Ge]>[Ge] | [Gd]3 [Fe] [Fd]2 F2 |[M:3/4] G6 |] %18
V:2
 z4 z2 [D,B,]>[D,B,] | [G,,G,]3 [G,,G,] [G,,G,]>[G,,G,] [G,,G,]>[G,,G,] | %2
 [C,C]>[C,C] [C,C]>[C,C] [C,A,C]2 C>C | D2 D,>D, D,>[D,D] [D,D]>[D,D] | %4
 [G,D]>G, G,>G, G,2 [D,B,]>[D,B,] | [G,,G,]3 [G,,G,] [G,,G,]>[G,,G,] [G,,G,]>[G,,G,] | %6
 [C,C]>[C,C] [C,C]>[C,C] [C,A,C]2 [^C,G,^C]>[C,G,C] | D4 z D z z/ ^C/ |[M:3/4] [D,A,]6 | %9
[M:1/4] D,>D, |[M:4/4] D2- [D,D-]>[D,D-] [D,D]>[D,A,D] [D,B,]>[D,C] | [G,D]2 [G,B,D]4 D,>D, | %12
 D2- [D,D]2 z z/ D/ E>D | [G,B,D]6 z2 | ^G6 z2 | A,2 A,4 [^C,^C]>[C,C] | %16
 [D,D]3 [D,B,] [D,A,]2 [D,CD]2 |[M:3/4] [G,B,D]6 |] %18
V:3
 x8 | x8 | x8 | F6 z2 | z z/ D/ D>D D2 D>D | x8 | x8 | z2[K:bass] F,2 z[K:treble] B [E^c]>A | %8
[M:3/4] x6 |[M:1/4] x2 |[M:4/4] z2 A,>B, C>c [EB]>[FA] | x8 | z2 A,2 D>c B>A | x8 | %14
 z2 D>D D>[D^Gd] [DGc]>[DEB] | x8 | x8 |[M:3/4] x6 |] %18
V:4
 x8 | x8 | x8 | x8 | x8 | x8 | x8 | z4[K:bass] C2[K:treble] C2 |[M:3/4] x6 |[M:1/4] x2 | %10
[M:4/4] x8 | x8 | x8 | x8 | x8 | x8 | x8 |[M:3/4] x6 |] %18
V:5
 x8 | x8 | x8 | x8 | x8 | x8 | x8 | D,2 z2 A,2 A,,2 |[M:3/4] x6 |[M:1/4] x2 | %10
[M:4/4] [D,A,]2 z2 z4 | x8 | [D,A,]2 z2 E,2 [F,C]2 | x8 | z2 E,>F, ^G,>E, F,>G, | x8 | x8 | %17
[M:3/4] x6 |] %18

